assets/svg/delete.svg

<svg xmlns="http://www.w3.org/2000/svg" viewBox="0 0 24 24"><path d="M18 19c0 1.66-1.34 3-3 3H8c-1.66 0-3-1.34-3-3V7H4V4h4.5l1-1h4l1 1H19v3h-1v12M6 7v12c0 1.1.9 2 2 2h7c1.1 0 2-.9 2-2V7H6m12-1V5h-4l-1-1h-3L9 5H5v1h13M8 9h1v10H8V9m6 0h1v10h-1V9Z"/></svg>

<svg xmlns="http://www.w3.org/2000/svg" viewBox="0 0 24 24"><path d="M18,19C18,20.66 16.66,22 15,22H8C6.34,22 5,20.66 5,19V7H4V4H8.5L9.5,3H13.5L14.5,4H19V7H18V19M6,7V19C6,20.1 6.9,21 8,21H15C16.1,21 17,20.1 17,19V7H6M18,6V5H14L13,4H10L9,5H5V6H18M8,9H9V19H8V9M14,9H15V19H14V9Z" /></svg>
